svgs/duotone/hand-holding-medical.svg

<svg xmlns="http://www.w3.org/2000/svg" viewBox="0 0 576 512"><!--! Font Awesome Pro 6.0.0-alpha3 by @fontawesome - https://fontawesome.com License - https://fontawesome.com/license (Commercial License) --><defs><style>.fa-secondary{opacity:.4}</style></defs><path class="fa-primary" d="M400 96v64c0 8.836-7.164 16-16 16h-64v64C320 248.8 312.8 256 304 256h-64C231.2 256 224 248.8 224 240v-64H160C151.2 176 144 168.8 144 160V96c0-8.838 7.164-16 16-16h64v-64C224 7.162 231.2 0 240 0h64C312.8 0 320 7.162 320 16v64h64C392.8 80 400 87.16 400 96z"/><path class="fa-secondary" d="M559.7 392.2l-135.1 99.52C406.9 504.8 385 512 362.1 512H15.1C7.251 512 0 504.8 0 496v-95.98C0 391.3 7.251 383.1 15.1 383.1l55.37 .0241l46.5-37.74c20.1-17 47.12-26.25 74.12-26.25h159.1c19.5 0 34.87 17.38 31.62 37.38c-2.623 15.74-17.37 26.62-33.37 26.62H271.1c-8.748 0-15.1 7.25-15.1 16c0 8.742 7.25 15.99 15.1 15.99h120.6l119.7-88.17c17.79-13.19 42.81-9.344 55.93 8.469C581.3 354.1 577.5 379.1 559.7 392.2z"/></svg>

<svg xmlns="http://www.w3.org/2000/svg" viewBox="0 0 576 512"><!-- Font Awesome Pro 5.15.3 by @fontawesome - https://fontawesome.com License - https://fontawesome.com/license (Commercial License) --><defs><style>.fa-secondary{opacity:.4}</style></defs><path d="M559.73,392.21l-135,99.52A104.8,104.8,0,0,1,363,512H16A16.11,16.11,0,0,1,0,496V400a16.11,16.11,0,0,1,16-16H71.37l46.5-37.74A117.7,117.7,0,0,1,192,320H352a32.07,32.07,0,0,1,31.62,37.38C381,373.15,366.22,384,350.23,384H272a16,16,0,0,0,0,32H392.59l119.67-88.18a40,40,0,1,1,47.47,64.37Z" class="fa-secondary"/><path d="M400,96v64a16,16,0,0,1-16,16H320v64a16,16,0,0,1-16,16H240a16,16,0,0,1-16-16V176H160a16,16,0,0,1-16-16V96a16,16,0,0,1,16-16h64V16A16,16,0,0,1,240,0h64a16,16,0,0,1,16,16V80h64A16,16,0,0,1,400,96Z" class="fa-primary"/></svg>
